plasma/desktoptheme/Monochrome/icons/kate.svg

<svg width="32" height="32" version="1" xmlns="http://www.w3.org/2000/svg">
 <g id="16-16-kate" transform="translate(54,10)">
  <rect y="6" width="16" height="16" style="opacity:.00100002;stroke-width:.72727275"/>
  <path transform="translate(-3,3)" d="m11 3a8 8 0 0 0-8 8 8 8 0 0 0 8 8 8 8 0 0 0 8-8 8 8 0 0 0-8-8zm2.611328 3c0.182045 0 0.364504 0.071536 0.50586 0.2128906l1.669921 1.6699219c0.28271 0.28271 0.28271 0.7270556 0 1.0097656l-1.404297 1.3964839-2.671874-2.6718745 1.396484-1.4042969c0.141355-0.141355 0.321861-0.2128906 0.503906-0.2128906zm-2.861328 2.5761719 2.673828 2.6738281-4.751953 4.75h-2.671875v-2.671875z" style="fill:#aaaaac"/>
 </g>
 <g id="22-22-kate" transform="translate(32,10)">
  <rect width="22" height="22" style="opacity:.00100002"/>
  <path d="m11 3a8 8 0 0 0-8 8 8 8 0 0 0 8 8 8 8 0 0 0 8-8 8 8 0 0 0-8-8zm2.611328 3c0.182045 0 0.364504 0.071536 0.50586 0.2128906l1.669921 1.6699219c0.28271 0.28271 0.28271 0.7270556 0 1.0097656l-1.404297 1.3964839-2.671874-2.6718745 1.396484-1.4042969c0.141355-0.141355 0.321861-0.2128906 0.503906-0.2128906zm-2.861328 2.5761719 2.673828 2.6738281-4.751953 4.75h-2.671875v-2.671875z" style="fill:#aaaaac"/>
 </g>
 <g id="kate">
  <rect width="32" height="32" style="opacity:.00100002"/>
  <g>
   <path d="m27 28.5v-25c0-0.831-0.669-1.5-1.5-1.5h-19c-0.831 0-1.5 0.669-1.5 1.5v25c0 0.831 0.669 1.5 1.5 1.5h19c0.831 0 1.5-0.669 1.5-1.5z" style="fill:#e4e4e4"/>
   <path d="m6.5 2c-0.831 0-1.5 0.669-1.5 1.5v1c0-0.831 0.669-1.5 1.5-1.5h19c0.831 0 1.5 0.669 1.5 1.5v-1c0-0.831-0.669-1.5-1.5-1.5z" style="fill:#ffffff;opacity:.1"/>
   <path d="m5 28.5v1c0 0.831 0.669 1.5 1.5 1.5h19c0.831 0 1.5-0.669 1.5-1.5v-1c0 0.831-0.669 1.5-1.5 1.5h-19c-0.831 0-1.5-0.669-1.5-1.5z" style="opacity:.2"/>
   <g transform="translate(3)">
    <circle cx="21" cy="23" r="8" style="fill-rule:evenodd;fill:#f34235"/>
   </g>
   <path d="m20 25.218v1.782h1.7819l4.5004-4.5004-1.7819-1.7819zm7.8586-4.2891c0.18848-0.18847 0.18848-0.48545 0-0.67393l-1.1137-1.1137c-0.18848-0.18848-0.48546-0.18848-0.67393 0l-0.931 0.937 1.782 1.782z" style="fill:#ffffff"/>
   <path d="M 31.979,23.424 A 8,8 0 0 1 24,31 8,8 0 0 1 16.021,23.576 8,8 0 0 0 16,24 a 8,8 0 0 0 8,8 8,8 0 0 0 8,-8 8,8 0 0 0 -0.02148,-0.57617 z" style="fill-rule:evenodd;opacity:.2"/>
  </g>
 </g>
</svg>

<svg xmlns="http://www.w3.org/2000/svg" width="32" height="32" version="1">
 <g id="22-22-kate" transform="translate(32,10)">
  <rect style="opacity:0.001" width="22" height="22" x="0" y="0"/>
  <g transform="translate(3,-3)">
   <path style="fill:#aaaaac" d="m 11,3 a 8,8 0 0 0 -8,8 8,8 0 0 0 8,8 8,8 0 0 0 8,-8 8,8 0 0 0 -8,-8 z m 2.611328,3 c 0.182045,0 0.364504,0.071536 0.50586,0.2128906 l 1.669921,1.6699219 c 0.28271,0.28271 0.28271,0.7270556 0,1.0097656 L 14.382812,10.289062 11.710938,7.6171875 13.107422,6.2128906 C 13.248777,6.0715356 13.429283,6 13.611328,6 Z M 10.75,8.5761719 13.423828,11.25 8.671875,16 H 6 v -2.671875 z" transform="translate(-3,3)"/>
  </g>
 </g>
 <g id="16-16-kate" transform="translate(54,10)">
  <path style="fill:#aaaaac" d="m 11,3 a 8,8 0 0 0 -8,8 8,8 0 0 0 8,8 8,8 0 0 0 8,-8 8,8 0 0 0 -8,-8 z m 2.611328,3 c 0.182045,0 0.364504,0.071536 0.50586,0.2128906 l 1.669921,1.6699219 c 0.28271,0.28271 0.28271,0.7270556 0,1.0097656 L 14.382812,10.289062 11.710938,7.6171875 13.107422,6.2128906 C 13.248777,6.0715356 13.429283,6 13.611328,6 Z M 10.75,8.5761719 13.423828,11.25 8.671875,16 H 6 v -2.671875 z" transform="translate(-3,3)"/>
 </g>
 <g id="kate">
  <rect width="32" height="32" x="0" y="0" style="opacity:0.001"/>
  <g>
   <path style="fill:#e4e4e4" d="M 27,28.5 V 3.5 C 27,2.669 26.331,2 25.5,2 H 6.5 C 5.669,2 5,2.669 5,3.5 v 25 C 5,29.331 5.669,30 6.5,30 h 19 c 0.831,0 1.5,-0.669 1.5,-1.5 z"/>
   <path style="opacity:0.1;fill:#ffffff" d="M 6.5,2 C 5.669,2 5,2.669 5,3.5 v 1 C 5,3.669 5.669,3 6.5,3 h 19 C 26.331,3 27,3.669 27,4.5 v -1 C 27,2.669 26.331,2 25.5,2 Z"/>
   <path style="opacity:0.2" d="m 5,28.5 v 1 C 5,30.331 5.669,31 6.5,31 h 19 c 0.831,0 1.5,-0.669 1.5,-1.5 v -1 C 27,29.331 26.331,30 25.5,30 H 6.5 C 5.669,30 5,29.331 5,28.5 Z"/>
   <g transform="translate(3)">
    <circle style="fill:#f34235" cx="21" cy="23" r="8"/>
   </g>
   <path style="fill:#ffffff" d="M 20,25.218 V 27 h 1.7819 l 4.5004,-4.5004 -1.7819,-1.7819 z m 7.8586,-4.2891 c 0.18848,-0.18847 0.18848,-0.48545 0,-0.67393 l -1.1137,-1.1137 c -0.18848,-0.18848 -0.48546,-0.18848 -0.67393,0 l -0.931,0.937 1.782,1.782 z"/>
   <path style="opacity:0.2" d="M 31.979,23.424 A 8,8 0 0 1 24,31 8,8 0 0 1 16.021,23.576 8,8 0 0 0 16,24 a 8,8 0 0 0 8,8 8,8 0 0 0 8,-8 8,8 0 0 0 -0.02148,-0.57617 z"/>
  </g>
 </g>
</svg>
